X: 324
P: Longways for as many as will
M: C|
L: 1/8
K: G
[|\
b>a b>c' b>g a>d | g>f g>a f2 f2 | g>f g>e ^d>^c B>f | g>e e>^d e2 e2 |]
[|\
E>F G>A B>c d>e | c>B A>d B>A G2 | B>A B>c d>e f>g | a>b e>g f>e d2 |

